!!!OTL: 475. Fern von der Liebsten.
!!!COM: Volksthümlich
!!!ODT: 1880
!!!ARE: Europa, Mitteleuropa, Deutschland, Hessen; Nassau; Westfalen
!!!SCT: B0475
!!!TXL: @@DE
!!!YEM: Copyright 1995, estate of Helmut Schaffrath.
**kern	**text
*ICvox	*
*Ivox	*
*clefG2	*
*M6/8	*
*k[f#c#]	*
*D:	*
!LO:TX:a:t=Gelaſſen.	!
{8a	Jch
=1	=1
8.a	wä-
16b/	-re
8a	wohl
8a	fröh-
8ff#	-lich
8dd	ſo
=2	=2
(4dd	ger-
8cc#)	.
4cc#}	-ne,
{8b/	doch
=3	=3
8b/	kann
8a	ich
8a	nicht
8aL	fröh-
8gJ	-lich
8e	recht
=4	=4
4.d	ſein
4r}	.
{8d	denn,
=5	=5
8g	Lieb-
8g	-chen,
8g	du
8dd	biſt
16ddL	in
16cc#J	.
16ddL	der
16bJ	.
=6	=6
(4b/	Fer-
8a)	.
4a}	-ne,
{8f#	daß
=7	=7
8.a	ich
16b/	dich
8a	muß
8a	laſ-
16gL	-ſen
16f#J	.
16gL	al-
16eJ	.
=8	=8
(4.d	-lein,
8ddL)	.
8cc#J}	.
{8b	daß
=9	=9
8b/	ich
8a	dich
8a	muß
8a	laſ-
8g	-ſen
8e	al-
=10	=10
[4.d	-lein.
8d]	.
8r}	.
==	==
!!!AGN: Liebes - Lied, Leid, Klage
!!!GTL: Liebeslieder - Liebesleid
!!!ONB: ESAC (Essen Associative Code) Database: BOEHME
!!!AMT: compound duple
!!!AIN: vox
!!!EED: Helmut Schaffrath
!!!EEV: 1.0
!!Aus dem Weſtfäliſchen, Heſſiſchen und Naſſauiſchen. 1880.
!!@@COMMENT:"Volksthümliches Lied mit geiſtlichem Schluſſe; der daktyliſche Versbau und die geſchmückte
!!Sprache weiſen auf Kunſtdichtung hin."
!!@@END:
!!!URL-scan: https://archive.org/details/BoehmeVtLieder1895/page/n381/mode/2up
!!!ENC: Anna Maria Matuszewska
!!!EEV: 2024/10/07
*-	*-
